X:1
T:Ye Are the Light, 77.77 D
T:Ye Are the Light, 77.77 D
T:John David Brunk (1872-1926) 
T:Public Domain Courtesy of the Cyber Hymnal™
C:John David Brunk (1872-1926)
Z:Public Domain
Z:Courtesy of the Cyber Hymnal™
%%score ( 1 2 ) ( 3 4 )
L:1/8
Q:1/4=110
M:4/4
K:Db
V:1 treble 
V:2 treble 
V:3 bass 
V:4 bass 
V:1
 [Fd]2 [Fd][Fd] [Gd]2 [Gc][GB] | ([FA]4 D4) | [CG]2 [CG][CG] [EG]2 [CA][CG] | [DF]6 z2 | %4
 [Fd]2 [Fd][Fd] [Gd]2 [Gc][GB] | ([FA]4 D4) | [CE]2 [CA][CA] [D=G]2 [Ec][DB] | [CA]6 z2 | %8
 [Ec]2 [Ec][Ec] [Ec]2 [GB][Gc] | ([DFd]4 A4) | [Gc]2 [EGc][Gc] [EG]2 [Gc][GB] | [FA]6 z2 | %12
 [Fd]2 [Fd][Fd] [B,Gd]2 [Ge][Gd] | ([EGc]4 [DB]4) | [FA]2 [FA][FA] [GA]2 [GB][Gc] | [Fd]8 |] %16
V:2
 x8 | x4 D4 | x8 | x8 | x8 | x4 D4 | x8 | x8 | x8 | x4 A4 | x8 | x8 | x8 | x8 | x8 | x8 |] %16
V:3
 [D,A,]2 [D,A,][D,A,] [G,B,]2 [G,B,][G,C] | ([D,D]4 A,4) | %2
 [A,,A,]2 [A,,A,][A,,A,] [C,A,]2 [A,,A,][A,,A,] | [D,A,]6 z2 | %4
 [D,A,]2 [D,A,][D,A,] [G,B,]2 [G,B,][G,C] | ([D,D]4 [D,A,]4) | %6
 [E,A,]2 [E,A,][E,A,] [E,B,]2 [E,=G,][E,G,] | [A,,A,]6 z2 | [E,A,]2 A,A, [C,A,]2 [A,,C][A,,E] | %9
 D,8 | [A,E]2 [A,E][A,E] [A,C]2 [A,,E][A,,C] | [D,D]6 z2 | [D,A,]2 [D,A,][D,A,] G,2 [G,B,][G,B,] | %13
 G,8 | [A,D]2 [A,D][A,D] [A,,C]2 [A,,C][A,,E] | [D,D]8 |] %16
V:4
 x8 | x4 A,4 | x8 | x8 | x8 | x8 | x8 | x8 | x2 A,A, x4 | D,8 | x8 | x8 | x8 | G,8 | x8 | x8 |] %16

